src/assets/images/icons/arrow-primary.inline.svg

<?xml version="1.0" encoding="UTF-8"?>
<svg width="14px" height="13px" viewBox="0 0 14 13" version="1.1" xmlns="http://www.w3.org/2000/svg" xmlns:xlink="http://www.w3.org/1999/xlink">
    <title>Combined Shape</title>
    <g id="Page-5" stroke="none" stroke-width="1" fill="none" fill-rule="evenodd">
        <g id="Home-1440-px---Adjustments" transform="translate(-333.000000, -478.000000)" fill="#FFFFFF" fill-rule="nonzero">
            <g id="Group" transform="translate(210.000000, 452.000000)">
                <g id="Group-15" transform="translate(123.000000, 26.000000)">
                    <path d="M6.69170506,0.302515997 C7.04674321,-0.0647648474 7.60983312,-0.101862386 8.01129435,0.214515911 L8.01129435,0.214515911 L8.10829494,0.302515997 L12.9082949,5.26803324 C13.1250076,5.49221873 13.2269146,5.80113289 13.1939525,6.08823912 C13.2022666,6.16634053 13.2020335,6.24511757 13.1932218,6.32294672 L13.1932218,6.32294672 L13.1824839,6.39447132 L13.1690356,6.45828302 L13.1309263,6.58000957 L13.0977121,6.65745958 L13.0540779,6.73948901 L13.0046061,6.81486672 L12.912684,6.92576775 L8.10345908,11.9008101 L8.0060921,11.9885239 C7.60983312,12.3005114 7.04674321,12.2634139 6.69170506,11.896133 C6.33831819,11.5305604 6.30278747,10.9534178 6.60666867,10.5407581 L6.60666867,10.5407581 L6.69168724,10.4404655 L9.791,7.23232452 L1,7.23380728 C0.483812932,7.23380728 0.0600639465,6.83104537 0.0058582465,6.31498568 L0.0058582465,6.31498568 L2.18047802e-12,6.2027728 C2.18047802e-12,5.68225765 0.376376802,5.24427756 0.880693574,5.1791982 L0.880693574,5.1791982 L1,5.17173831 L9.992,5.17132452 L6.69170506,1.75820201 C6.33268345,1.38680034 6.3050664,0.803547754 6.60885392,0.399553638 L6.60885392,0.399553638 Z" id="Combined-Shape"></path>
                </g>
            </g>
        </g>
    </g>
</svg>

<svg width="14" height="13" xmlns="http://www.w3.org/2000/svg"><path d="M6.69170506.302516c.35503815-.36728085.91812806-.40437839 1.31958929-.08800009L8.10829494.302516l4.79999996 4.96551724c.2167127.22418549.3186197.53309965.2856576.82020588.0083141.07810141.008081.15687845-.0007307.2347076l-.0107379.0715246-.0134483.0638117-.0381093.12172655-.0332142.07745001-.0436342.08202943-.0494718.07537771-.0919221.11090103-4.80922492 4.97504235-.09736698.0877138c-.39625898.3119875-.95934889.27489-1.31438704-.0923909-.35338687-.3655726-.38891759-.9427152-.08503639-1.3553749l.08501857-.1002926L9.791 7.23232452 1 7.23380728c-.51618707 0-.93993605-.40276191-.99414175-.9188216L0 6.2027728c0-.52051515.3763768-.95849524.88069357-1.0235746L1 5.17173831l8.992-.00041379-3.30029494-3.41312251C6.33268345 1.38680034 6.3050664.80354775 6.60885392.39955364z" fill="#FFF" fill-rule="nonzero"/></svg>
